svg/icon-card-housing.svg

<svg viewBox="0 0 50 50" xmlns="http://www.w3.org/2000/svg" fill-rule="evenodd" clip-rule="evenodd" stroke-miterlimit="10"><circle cx="25" cy="25" r="25" fill="#118df0"/><circle cx="25" cy="25" r="22.9" fill="none" stroke="#fff" stroke-width="2"/><g><path fill="#fff" d="M24.9 11.1h11.9v25.7H24.9z"/><path fill="#118df0" d="M29.5 30.5h2.6v2.6h-2.6zM29.5 25.4h2.6V28h-2.6zM29.5 20.3h2.6v2.6h-2.6zM29.5 15.2h2.6v2.6h-2.6z"/><path d="M27.1 36.8H11.3v-9.5l7.9-7 7.8 6.9.1.1v9.5z" fill="#fff" fill-rule="nonzero"/><path fill="#118df0" d="M17.9 30.5h2.6v2.6h-2.6zM17.9 25.4h2.6V28h-2.6z"/></g></svg>

<svg viewBox="0 0 50 50" xmlns="http://www.w3.org/2000/svg" fill-rule="evenodd" clip-rule="evenodd" stroke-miterlimit="10"><circle cx="25" cy="25" r="25" fill="#118df0"/><circle cx="25" cy="25" r="22.9" fill="none" stroke="#fff" stroke-width="2"/><g><path fill="#fff" d="M24.9 11.1H36.8V36.8H24.9z"/><path fill="#118df0" d="M29.5 30.5H32.1V33.1H29.5zM29.5 25.4H32.1V28H29.5zM29.5 20.3H32.1V22.900000000000002H29.5zM29.5 15.2H32.1V17.8H29.5z"/><path d="M27.1,36.8l-15.8,0l0,-9.5l7.9,-7l7.8,6.9l0.1,0.1l0,9.5Z" fill="#fff" fill-rule="nonzero"/><path fill="#118df0" d="M17.9 30.5H20.5V33.1H17.9zM17.9 25.4H20.5V28H17.9z"/></g></svg>
